icons/mobile/16/svg/shield-checkmark-fill-16.svg

<svg width="16" height="16" viewBox="0 0 16 16" fill="none" xmlns="http://www.w3.org/2000/svg">
<path fill-rule="evenodd" clip-rule="evenodd" d="M6.86545 3.34779C7.55638 2.88107 8.44339 2.88368 9.12326 3.35657C9.52923 3.63855 9.95304 3.90277 10.384 4.14075C10.844 4.39575 11.3163 4.62535 11.7883 4.82435C12.6421 5.18446 13.138 6.11916 12.967 7.04603L12.6447 8.79505C12.4907 9.63401 12.2135 10.3659 11.8205 10.9699C11.0886 12.0937 10.0881 13.0718 9.00119 13.7228C8.69422 13.9068 8.35008 13.9991 8.00412 13.9992L8.00314 14.0001C7.65214 14.0001 7.30054 13.9049 6.98654 13.7159C5.90768 13.0659 4.91175 12.0926 4.18283 10.9747C3.78894 10.3698 3.51064 9.63502 3.35666 8.78919L3.03439 7.01185C2.86543 6.08087 3.35827 5.1462 4.20724 4.78821C4.5922 4.62623 4.97219 4.44694 5.33615 4.25696C5.8631 3.98298 6.37749 3.67676 6.86545 3.34779ZM10.2971 7.41517C10.0551 7.17117 9.66311 7.17117 9.42111 7.41517L7.60763 9.25111L6.84884 8.48646C6.60584 8.24246 6.21389 8.24246 5.97189 8.48646C5.73017 8.73048 5.72998 9.12634 5.97189 9.37025L6.73068 10.1349C6.96362 10.3698 7.27383 10.5001 7.60373 10.5001C7.93371 10.5001 8.2438 10.3699 8.4758 10.1349L10.2971 8.29896C10.539 8.055 10.5389 7.65916 10.2971 7.41517Z" fill="black"/>
</svg>

<!-- This Source Code Form is subject to the terms of the Mozilla Public
   - License, v. 2.0. If a copy of the MPL was not distributed with this
   - file, You can obtain one at http://mozilla.org/MPL/2.0/. -->
<svg xmlns="http://www.w3.org/2000/svg" width="16" height="16" fill="none" viewBox="0 0 16 16">
    <path fill="#000" fill-rule="evenodd" d="M6.865 3.348a1.985 1.985 0 0 1 2.258.009 14.5 14.5 0 0 0 2.665 1.467c.854.36 1.35 1.295 1.179 2.222l-.322 1.749c-.154.839-.431 1.57-.825 2.175-.731 1.124-1.732 2.102-2.819 2.753a1.94 1.94 0 0 1-.997.276V14a1.97 1.97 0 0 1-1.017-.284c-1.08-.65-2.075-1.623-2.804-2.741-.394-.605-.672-1.34-.826-2.186l-.323-1.777c-.169-.931.324-1.866 1.173-2.224a15.7 15.7 0 0 0 2.658-1.44m3.432 4.067a.616.616 0 0 0-.876 0L7.608 9.251l-.76-.765a.617.617 0 0 0-.876 0 .63.63 0 0 0 0 .884l.759.765a1.22 1.22 0 0 0 1.745 0l1.821-1.836a.63.63 0 0 0 0-.884" clip-rule="evenodd" />
</svg>
